!!!!SEGMENT: pl-sa--l-1636--110_anonim--qui-passus-est.krn
!!!cenid: 17xx:817
!!!COM: Anonim
!!!COM-rismid: pe30004985
!!!CDT:
!!!CNT:
!!!OTL: Qui passus est
!!!PDT:
!!!AGN: Sacred
!!!SMS-siglum: PL-SA
!!!SMS-shelfmark: L 1636
!!!SMS-shelfwork: 110 W
!!!SMS-variant:
!!!SMS-altvar:
!!!NIFC-rismid: 1001087587
!!!URL-scan: http://repozytorium.nifc.pl/skany/pl-sa-nut--l1636
!!!ONB-nifc: 54v-55r, skan 0046, s. 7-8
**kern	**kern	**text
*part2	*part1	*part1
*staff2	*staff1	*staff1
*I"Organo	*I"Organo	*
*clefF4	*clefC1	*
*k[]	*k[]	*
*a:	*a:	*
*M2/1	*M2/1	*
*met(c|)	*met(c|)	*
=1	=1	=1
!LO:SIC:o:s:=:v:oznaczenie metryczne alla breve	!LO:SIC:o:s:=:v:oznaczenie metryczne alla breve	!
0E\	1b\ 1g#X\	Qui
.	1b\ 1g#\	Paſ-
=2-	=2-	=2-
4AA/	1cc\ 1a\	-sus
4BB/	.	.
4C/	.	.
4D/	.	.
!LO:SIC:o:s:=:v:all\right&colon;global	!LO:SIC:o:s:=:v:♯ zgodnie z podziałem na takty	!
*2\right	*	*
2E\	1b\ 1g#X\	eſt
2EE/	.	.
=3-	=3-	=3-
2F\	1a/ 1f/	pro
2D/	.	.
4AA/	1cc\ 1a\	no-
4BB/	.	.
4C/	.	.
4D/	.	.
=4-	=4-	=4-
!	!LO:SIC:o:s:=:v:♯ zgodnie z podziałem na takty	!
4E\	1b\ 1g#X\	.
4D\	.	.
4E\	.	.
4EE/	.	.
!	!LO:TX:a:t=C	!
1E\	1b\ 1g#X\	-bis
=5	=5	=5
2C/	1ee\	Je-
4BB/	.	.
4AA/	.	.
!	!LO:N:vis=0	!
2BB/	1dd\	-su
!LO:SIC:o:s:=:v:dźwięk nieczytelny [prawdopodobnie 1GG]	!	!
2ryy	.	.
=6	=6	=6
!	!LO:N:vis=0	!
2ryy	1cc\	.
2GG/	.	.
4AA/	1cc\	Chri-
4BB/	.	.
4C/	.	.
4D/	.	.
!	!LO:SIC:o:s:=:v:litera "C" nad kreską taktową	!
1E\	1b\	-ſte
!!LO:PB:g=original
=7	=7	=7
4AA/	1cc\	Mi-
4BB/	.	.
2C/	.	.
=8-	=8-	=8-
4FF/	1a\	-ſe-
4GG/	.	.
4AA/	.	.
4BB/	.	.
2C/	1g\	-re-
2GG/	.	.
=9-	=9-	=9-
!	!LO:N:vis=0	!
2D/	1f/	-re
2BB/	.	.
!	!LO:N:vis=0	!
2C/	1e/	.
2AA/	.	.
=10	=10	=10
!	!LO:N:vis=0	!
2D/	1d/	no-
4C/	.	.
4BB/	.	.
!	!LO:N:vis=0	!
2E\	1e/L	.
2EE/	.	.
=11	=11	=11
0AA/	0e/	-bis
==	==	==
*-	*-	*-
!!!system-decoration: s1,s2
!!!EED: Leszek Kubiak
!!!EST: 2020-12-09
!!!ENC: Andrzej Kubiczek
!!!END: 2020-06-14
